X:1
T:Bíró Marcsa bő szoknyája
C:Hungarian folk song
Z:Public Domain
L:1/4
M:3/4
K:C
V:1 treble nm="Voice"
%%MIDI program 52
V:1
 E/F/ G G | E/F/ G G | A B c | z3 | d/d/ d G | B/B/ B A | d3/2 G/ ^F | E D2 |] %8
w: Bí- ró Mar- csa|bő szok- nyá- ja,|sű- ri- rom,||Be- a- kadt a|csip- ke- fá- ba,|sár- ga li-|li- om.|

